storage/app/icons/phosphoricons/duotone/checkerboard-duotone.svg

<svg xmlns="http://www.w3.org/2000/svg" fill="currentColor" viewBox="0 0 256 256"><path d="M40 128h88v88H48a8 8 0 0 1-8-8Zm168-88h-80v88h88V48a8 8 0 0 0-8-8" opacity=".2"/><path d="M208 32H48a16 16 0 0 0-16 16v160a16 16 0 0 0 16 16h160a16 16 0 0 0 16-16V48a16 16 0 0 0-16-16m0 88h-72V48h72Zm-88-72v72H48V48Zm-72 88h72v72H48Zm160 72h-72v-72h72z"/></svg>

<svg xmlns="http://www.w3.org/2000/svg" viewBox="0 0 256 256" fill="currentColor"><path d="M40,128h88v88H48a8,8,0,0,1-8-8ZM208,40H128v88h88V48A8,8,0,0,0,208,40Z" opacity="0.2"/><path d="M208,32H48A16,16,0,0,0,32,48V208a16,16,0,0,0,16,16H208a16,16,0,0,0,16-16V48A16,16,0,0,0,208,32Zm0,88H136V48h72ZM120,48v72H48V48ZM48,136h72v72H48Zm160,72H136V136h72v72Z"/></svg>
